X:884
T:Reel 884
M:4/4
K:Dmaj
L:1/8
D2FD A,DFD|EFGA BEE2|D2FD B,DA,G|AFGE FDD2|D2FD B,DA,G|EDFD EDB,D|A,DFD EDFA|GFEG FDD2|FD (3FED AD (3FED |AD (3FED CEEG| (3FGF dF  (3GFG Bd|AGFD EDB,D| (3FGA dB  (3cBA ec|dAFA BEE2|FABc dedB|AFEG FDD2|
